X:1
T:SMASH THE WINDOWS -- REEL
B:Ryan's Mammoth Collection of Fiddle Tunes
R:reel
Z: Contributed 20000515181329 by John Chambers jchambers:casc.com
Z: Contributed by Ray Davies,  ray:davies99.freeserve.co.uk
M:C|
L:1/8
K:G
  vG2GB dBGB | A2AB AGED | G2GB dBGB | cBAG E2D2 :|
|: g2ga gedB | Aaab agef | g2ga gedB | cBAG E2D2 :|
